!!!!SEGMENT: pl-wtm--r-781-m_moniuszko-stanislaw--veni-creator.krn
!!!cenid: 18xx:2722
!!!COM: Moniuszko, Stanisław
!!!COM-rismid: pe30008351
!!!CDT: 1819/05/05-1872/06/04
!!!CNT: Polish
!!!OTL: Veni creator
!!!PDT:
!!!AGN: Sacred
!!!SMS-siglum: PL-Wtm
!!!SMS-shelfmark: R 781/M
!!!SMS-shelfwork: W
!!!SMS-variant:
!!!SMS-altvar:
!!!NIFC-rismid: 1001093526
!!!URL-scan: http://repozytorium.nifc.pl/skany/pl-wtm-nut--r781m
!!!ONB-nifc:
!!!OMD:Andante.
**kern	**kern	**dynam	**kern	**text	**dynam	**kern	**text	**dynam	**kern	**text	**dynam	**kern	**text	**dynam
*group2	*group2	*	*group1	*	*	*group1	*	*	*group1	*	*	*group1	*	*
*part5	*part5	*part5	*part4	*part4	*part4	*part3	*part3	*part3	*part2	*part2	*part2	*part1	*part1	*part1
*staff6	*staff5	*	*staff4	*staff4	*	*staff3	*staff3	*	*staff2	*staff2	*	*staff1	*staff1	*
*clefF4	*clefG2	*	*clefF4	*	*	*clefGv2	*	*	*clefG2	*	*	*clefG2	*	*
*k[]	*k[]	*	*k[]	*	*	*k[]	*	*	*k[]	*	*	*k[]	*	*
*C:	*C:	*	*C:	*	*	*C:	*	*	*C:	*	*	*C:	*	*
*M4/4	*M4/4	*	*M4/4	*	*	*M4/4	*	*	*M4/4	*	*	*M4/4	*	*
*met(c)	*met(c)	*	*met(c)	*	*	*met(c)	*	*	*met(c)	*	*	*met(c)	*	*
*all\right	*all\right	*	*all\right	*	*	*all\right	*	*	*all\right	*	*	*all\right	*	*
*2\right	*2\right	*	*2\right	*	*	*2\right	*	*	*2\right	*	*	*2\right	*	*
=1	=1	=1	=1	=1	=1	=1	=1	=1	=1	=1	=1	=1	=1	=1
!!LO:TX:t=P:problem:na s. 4 (skan 00005) szkic ołówkiem utworu czterogłosowego (?)
!	!	!	!	!	!	!	!	!	!	!	!	!LO:TX:t=P:problem:utwór jest niepełny, więcej o problemie w takcie 21	!	!
2rGG	(4G< (4E</	.	1r	.	.	1r	.	.	1r	.	.	1r	.	.
!LO:TX:b:i:t=ped.	!	!	!	!	!	!	!	!	!	!	!	!	!	!
.	8E<L 8C</))	.	.	.	.	.	.	.	.	.	.	.	.	.
.	8c<J 8E</	.	.	.	.	.	.	.	.	.	.	.	.	.
2C\	4c< 4E</	.	.	.	.	.	.	.	.	.	.	.	.	.
.	8G<L 8E</	.	.	.	.	.	.	.	.	.	.	.	.	.
.	8eJ 8G</	.	.	.	.	.	.	.	.	.	.	.	.	.
=2	=2	=2	=2	=2	=2	=2	=2	=2	=2	=2	=2	=2	=2	=2
2C\	(4e (4G</	.	1r	.	.	1r	.	.	1r	.	.	1r	.	.
.	8cL 8E</))	.	.	.	.	.	.	.	.	.	.	.	.	.
.	8gJ 8e 8c/	.	.	.	.	.	.	.	.	.	.	.	.	.
2C\	(4g 4e (4c/	.	.	.	.	.	.	.	.	.	.	.	.	.
.	8eL 8G</))	.	.	.	.	.	.	.	.	.	.	.	.	.
.	8gJ 8e/	.	.	.	.	.	.	.	.	.	.	.	.	.
=3	=3	=3	=3	=3	=3	=3	=3	=3	=3	=3	=3	=3	=3	=3
*^	*^	*	*	*	*	*	*	*	*	*	*	*	*	*
!	!	!	!	!	!	!	!	!	!	!	!	!	!	!LO:TX:t=P:problem:all\right:global	!	!
4c/	4C\	1cc	[>2e\	.	4c\	.	f	4c\	.	f	4e/	.	f	4cc\	Ve-	f
4B/	4r	.	.	.	8B\	.	.	8B\	.	.	8e/	.	.	8cc\	-ni	.
.	.	.	.	.	8B\	.	.	8B\	.	.	8e/	.	.	8cc\	Cre-	.
4A/	2r	.	2e] 2c\	.	4A\	.	.	4A\	.	.	4e/	.	.	4cc\	-a-	.
4G/	.	.	.	.	4G\	.	.	4G/	.	.	4e/	.	.	4cc\	-tor	.
=4	=4	=4	=4	=4	=4	=4	=4	=4	=4	=4	=4	=4	=4	=4	=4	=4
*	*^	*	*	*	*	*	*	*	*	*	*	*	*	*	*	*
!	!	!	!	!LO:TX:t=P:problem:błędne wyświetlanie łuku	!	!	!	!	!	!	!	!	!	!	!	!	!
1A	4.G\	1rGG	1cc	(>4.e\	.	4.G^\	.	.	4.A^/	.	.	4.e^/	.	.	4.cc^\	Spi-	.
.	8F#X\	.	.	8d#X\)	.	8F#X\	.	.	8A/	.	.	8d#X/	.	.	8cc\	-ri-	.
.	2F#\	.	.	2d#\	.	[4F#\	.	.	[4A/	.	.	[4d#/	.	.	[4cc\	-tus!	.
.	.	.	.	.	.	8F#\]	.	.	8A/]	.	.	8d#/]	.	.	8cc\]	.	.
.	.	.	.	.	.	8r	.	.	8r	.	.	8r	.	.	8r	.	.
*	*v	*v	*	*	*	*	*	*	*	*	*	*	*	*	*	*	*
*	*	*v	*v	*	*	*	*	*	*	*	*	*	*	*	*	*
=5	=5	=5	=5	=5	=5	=5	=5	=5	=5	=5	=5	=5	=5	=5	=5
*	*	*	*	*	*	*	*	*	*	*	*	*	*	*	*
*	*	*	*	*	*	*	*	*	*	*	*	*	*	*	*
!	!	!	!	!	!	!	!	!	!	!	!	!	!LO:TX:t=P:problem:właściwy tekst w t. 4-11 dopisany ponad pięciolinią	!	!
4G\	1r	4cc/	.	4G\	.	.	4c\	.	.	4e/	.	.	4cc\	men-	.
8c\L	.	4g/	.	8c\	.	.	8c\	.	.	8e/	.	.	8g/	-tes	.
8G\J	.	.	.	8G\	.	.	8c\	.	.	8e/	.	.	8g/	tu-	.
4E\	.	4cc/	.	4E\	.	.	4c\	.	.	4g/	.	.	4cc\	-o-	.
4C\	.	4ee 4g/	.	4C/	.	.	4c\	.	.	4g/	.	.	4ee\	-rum	.
=6	=6	=6	=6	=6	=6	=6	=6	=6	=6	=6	=6	=6	=6	=6	=6
*	*^	*	*	*	*	*	*	*	*	*	*	*	*	*	*
!	!	!LO:TX:b:i:t=ped	!	!	!	!	!	!	!	!	!	!	!	!LO:N:vis=4	!	!
2B/	1G	2GG\	4.ee 4.g/	.	4.G^\	.	.	4.B^\	.	.	4.g^/	.	.	4.ee\	vi-	.
.	.	.	8dd 8f/	.	8G\	.	.	8B\	.	.	8f/	.	.	8dd\	-si-	.
8c/	.	[<2CC\	2cc 2e/	.	4C/	.	.	4c\	.	.	4e/	.	.	4cc\	-ta	.
8r	.	.	.	.	.	.	.	.	.	.	.	.	.	.	.	.
8G/L	.	.	.	.	4r	.	.	8G/L	et	.	4r	.	.	4r	.	.
8A/J	.	.	.	.	.	.	.	8A/J	.	.	.	.	.	.	.	.
*	*	*	*	*	*	*	*	*	*	*	*	*	*	*	*	*
*	*v	*v	*	*	*	*	*	*	*	*	*	*	*	*	*	*
!!LO:LB:g=original
=7	=7	=7	=7	=7	=7	=7	=7	=7	=7	=7	=7	=7	=7	=7	=7
*	*	*	*	*	*	*	*^	*	*	*	*	*	*	*	*
!	!	!	!	!	!	!LO:DY:a	!	!	!	!	!	!	!LO:DY:a	!	!	!
4B-X/	[1C 1CC_	[2.ee/ [>2.g/	.	4C/	.	p	4B-^/	2.ryy	.	f	4g/	.	p	4ee\	im-	p
8A/L	.	.	.	8C/	.	.	8G/L	.	.	.	8g/	.	.	8ee\	-ple	.
8B-/J	.	.	.	8C/	.	.	8A/J	.	.	.	8g/	.	.	8ee\	su-	.
4Bn/	.	.	.	4.C^/	.	.	(4Bn^/	.	.	.	4.g^/	.	.	4.ee^\	-per-	.
8A/L	.	8ee]L 8g/]	.	.	.	.	8A/L)	8A\	.	.	.	.	.	.	.	.
8B/J	.	8ddJ 8f/	.	8C/	.	.	8B/J	8B\	.	.	8f/	.	.	8dd\	-na	.
*	*	*	*	*	*	*	*v	*v	*	*	*	*	*	*	*	*
=8	=8	=8	=8	=8	=8	=8	=8	=8	=8	=8	=8	=8	=8	=8	=8
*	*	*^	*	*	*	*	*	*	*	*	*	*	*	*	*
2G/	1C] 1CC]	4.cc/	[2e\	.	4.C/	.	.	4.c\	.	.	4.e/	.	.	4.cc\	gra-	.
.	.	8g/	.	.	8G\	.	.	8e\	.	.	8g/	.	.	8g/	-ti-	.
8c/	.	8g/	8e\]	.	8G\	.	.	8G/	.	.	8g/	.	.	8g/	-a	.
8r	.	8r	8ryy	.	8r	.	.	8r	.	.	8r	.	.	8r	.	.
*	*	*	*	*	*	*	*	*	*	*	*	*	*	*	*^	*
!	!	!	!	!	!	!	!	!LO:TX:t=P:problem:w t.8-10 zapis skreślony, prawidłowy zapisany u dołu systemu, z odnośnikiem (x)	!	!	!	!	!	!	!LO:TX:t=P:problem:mixed beam	!	!
!	!	!	!	!	!	!	!	!	!	!	!	!	!	!LO:TX:t=P:problem:w t. 8-10 skreślony tekst pierwotny, właściwy dopisany powyżej	!	!	!
8G/L	.	8g/L	4e\	f	8G\L	.	.	4e\	.	.	4e/	.	.	8g/L	o	[[quae	.
8A/J	.	8ee/J	.	.	8A\J	.	.	.	.	.	.	.	.	8ee\J	.	.	.
*	*	*v	*v	*	*	*	*	*	*	*	*	*	*	*	*	*	*
=9	=9	=9	=9	=9	=9	=9	=9	=9	=9	=9	=9	=9	=9	=9	=9	=9
4B-X/	2C\	1ee 1g	.	(4B-X\	.	.	4.e\	.	.	4g/	.	.	4ee\	im-	tu	.
8A/L	.	.	.	8A\)	.	.	.	.	.	8.g/	.	.	8.ee\	-ple	.	.
8B-/J	.	.	.	8B-\	.	.	8.e\	.	.	.	.	.	.	.	.	.
.	.	.	.	.	.	.	.	.	.	16g/	.	.	16ee\	su-	cre-	.
4Bn/	2BBn\	.	.	4Bn\	.	.	.	.	.	4.g/	.	.	4.ee\	-per-	-a-	.
.	.	.	.	.	.	.	16e\	.	.	.	.	.	.	.	.	.
.	.	.	.	.	.	.	4e\	.	.	.	.	.	.	.	.	.
8A#X/L	.	.	.	8A#X\	.	.	.	.	.	.	.	.	.	.	.	.
8B/J	.	.	.	8B\	.	.	8e\	.	.	8g/	.	.	8ee\	-na	-sti	.
=10	=10	=10	=10	=10	=10	=10	=10	=10	=10	=10	=10	=10	=10	=10	=10	=10
*	*	*^	*	*	*	*	*^	*	*	*	*	*	*^	*	*	*
!	!	!	!	!	!	!	!	!	!	!	!	!	!	!LO:DY:a	!	!	!	!	!LO:DY:a
2e 2c#X 2An\	2AA\	(2gg/	2ee [2a\	.	4.c#X^\	.	f	4.g 4.e\	4.ryy	.	.	4.a^/	.	f	4.gg 4.ee\	4.ryy	gra-	pe-	f
.	.	.	.	.	8c#\	.	.	8e/	8e\	.	.	8a/	.	.	8ee/	8ee\	-ti-	-cto-	.
*	*2\left	*	*	*	*	*	*	*	*	*	*	*	*	*	*	*	*	*	*
4d 4A\	[2D\	4ff/)	4ff 4a\]	.	8d\	.	.	8f\	2ryy	.	.	8a/	.	.	8ff\	2ryy	-a	-ra]]	.
*	*	*	*	*	*	*	*	*	*	*	*	*	*	*	*	*	*v	*v	*
.	.	.	.	.	8r	.	.	8r	.	.	.	8r	.	.	8r	.	.	.
!	!	!	!	!	!LO:TX:a:i:t=un poco piu lento.	!	!	!LO:TX:a:i:t=un poco piu lento.	!	!	!LO:DY:a	!LO:TX:a:i:t=un poco piu lento.	!	!LO:DY:a	!LO:TX:a:i:t=un poco piu lento.	!	!	!
4B-X/	.	4cc#X/	4g\	p	4D\	.	p	4B-X\	.	.	p	4a/	.	p	4cc#X\	.	quae	.
*	*	*	*	*	*	*	*	*v	*v	*	*	*	*	*	*v	*v	*	*
=11	=11	=11	=11	=11	=11	=11	=11	=11	=11	=11	=11	=11	=11	=11	=11	=11
*	*2\right	*	*	*	*	*	*	*	*	*	*	*	*	*	*	*
4.A/	2D\]	8.dd/L	[2.f\	.	8.D\	.	.	8.A/	.	.	8.f/	.	.	8.dd\	tu	.
.	.	16a/K	.	.	16D\	.	.	16A/	.	.	16f/	.	.	16a/	cre-	.
.	.	8a/	.	.	8D\	.	.	8A/	.	.	8f/	.	.	8a/	-a-	.
8A-X/	.	8ccn/J	.	.	8D\	.	.	8A-X/	.	.	8f/	.	.	8ccn\	-sti	.
4.d 4.G/	2GG\	4.b/	.	.	4.G\	.	.	4.G/	.	.	4.f/	.	.	4.b\	pec-	.
.	.	.	8f\L]	.	.	.	.	.	.	.	.	.	.	.	.	.
8c 8G/	.	8cc/	8e\J	.	8C/	.	.	8G/	.	.	8e/	.	.	8cc\	-to	.
*	*	*v	*v	*	*	*	*	*	*	*	*	*	*	*	*	*
!!LO:LB:g=original
=12	=12	=12	=12	=12	=12	=12	=12	=12	=12	=12	=12	=12	=12	=12	=12
[2c [2G [<2C/	[>2CC\	[2cc [>2e/	.	[2C;/	.	.	[2G;/	.	.	[2e;/	.	.	[2cc;\	ra.	.
8c] 8G] 8C/]	8CC\]	8cc] 8e/]	.	8C/]	.	.	8G/]	.	.	8e/]	.	.	8cc\]	.	.
8r	8ryy	8r	.	8r	.	.	8r	.	.	8r	.	.	8r	.	.
!	!	!	!	!LO:TX:a:i:t=a tempo 1mo	!	!	!LO:TX:a:i:t=a tempo 1mo	!	!	!LO:TX:a:i:t=a tempo 1mo	!	!	!LO:TX:a:i:t=a tempo 1mo	!	!
[4C [4CC/	4r	4r	.	4C/	Qui	.	4r	.	.	4r	.	.	4r	.	.
=13	=13	=13	=13	=13	=13	=13	=13	=13	=13	=13	=13	=13	=13	=13	=13
4C] 4CC/]	1r	2r	.	4C^/	di-	.	2r	.	.	1r	.	.	1r	.	.
4D 4DD/	.	.	.	4D^\	-ce-	.	.	.	.	.	.	.	.	.	.
4E 4EE/	.	(>2c^/	.	4E^\	-ris	.	2c^\	al-	.	.	.	.	.	.	.
4F#X 4FF#X/	.	.	.	4F#X^\	Pa-	.	.	.	.	.	.	.	.	.	.
=14	=14	=14	=14	=14	=14	=14	=14	=14	=14	=14	=14	=14	=14	=14	=14
*	*	*^	*	*	*	*	*	*	*	*	*	*	*	*	*
1G 1GG	1r	4B/)	2ryy	.	2.G\	-ra-	.	4B^\	-tis-	.	2r	.	.	1r	.	.
.	.	4c/	.	.	.	.	.	8c^\	-si-	.	.	.	.	.	.	.
.	.	.	.	.	.	.	.	8c\	-mus	.	.	.	.	.	.	.
.	.	4r	4d\	.	.	.	.	4d^\	do-	.	4r	.	.	.	.	.
.	.	4g/	4e\	.	4G\	-cli-	.	4e^\	-num	.	4g^/	Fons	.	.	.	.
=15	=15	=15	=15	=15	=15	=15	=15	=15	=15	=15	=15	=15	=15	=15	=15	=15
!	!	!	!LO:TX:t=P:problem:błędne wyświetlanie łuku	!	!	!	!	!	!	!	!	!	!	!	!	!
2F 2FF/	1r	4a/	(2e\	.	[2F\	-tum	.	2e\	.	.	4a^\	vi-	.	2r	.	.
.	.	4b/	.	.	.	.	.	.	.	.	4b^\	-vus,	.	.	.	.
(2F\	.	4cc/	4A</)	.	8F\]	.	.	4A/	.	.	4cc^\	ig-	.	8r	.	.
.	.	.	.	.	8r	.	.	.	.	.	.	.	.	8a/	Spi-	.
.	.	[4dd [4g/	4B</	.	4F\	Pa-	.	4r	.	.	4dd\	-nis,	.	8g/	-ri-	.
.	.	.	.	.	.	.	.	.	.	.	.	.	.	8g/	-tu-	.
=16	=16	=16	=16	=16	=16	=16	=16	=16	=16	=16	=16	=16	=16	=16	=16	=16
*	*^	*	*	*	*	*	*	*	*	*	*	*	*	*	*	*
2B/	1rFF	4E/	2dd/]	2.g\]	.	4E\	-ra-	.	1r	.	.	4.dd^\	cha-	.	4g^/	-a-	.
.	.	4D/	.	.	.	4D\	-cli-	.	.	.	.	.	.	.	4dd^\	-lis	.
.	.	.	.	.	.	.	.	.	.	.	.	8g/	-ri-	.	.	.	.
4c/	.	4C/)	4ee 4cc/	.	.	4C/	-tum-	.	.	.	.	4cc\	-tas,	.	4ee^\	un-	.
4c/	.	4r	4cc/	4cc\	.	4r	.	.	.	.	.	4r	.	.	8cc\	-ctio.	.
.	.	.	.	.	.	.	.	.	.	.	.	.	.	.	8r	.	.
*	*v	*v	*	*	*	*	*	*	*	*	*	*	*	*	*	*	*
*	*	*v	*v	*	*	*	*	*	*	*	*	*	*	*	*	*
!!LO:PB:g=original
=17	=17	=17	=17	=17	=17	=17	=17	=17	=17	=17	=17	=17	=17	=17	=17
!	!LO:TX:b:i:t=ped	!	!	!	!	!LO:DY:a	!	!	!LO:DY:a	!	!	!LO:DY:a	!	!	!LO:DY:a
!	!LO:TX:t=P:problem:błędne wyświetlanie łuku	!	!	!	!	!	!	!	!	!	!	!	!	!	!
4c 4F/	(>1FF	4ff 4a/	f	4F^\	.	f	4c^\	.	f	4a^/	.	f	4ff^\	Tu	f
!LO:N:vis=8..	!	!	!	!	!	!	!	!	!	!	!	!	!	!	!
8.cL 8.F/	.	8.ffL 8.a/	.	8.F\	.	.	8.c\	.	.	8.a/	.	.	8.ff\	se-	.
16cJk 16F/	.	16ffJk 16a/	.	16F\	.	.	16c\	.	.	16a/	.	.	16ff\	-pti-	.
4..c 4..F/	.	4..ff 4..a/	.	4..F^\	.	.	4..c^\	.	.	4..a^/	.	.	4..ff^\	-for-	.
16c#X 16F/	.	16ee 16a/	.	16F\	.	.	16c#X\	.	.	16a/	.	.	16ee\	-mis	.
=18	=18	=18	=18	=18	=18	=18	=18	=18	=18	=18	=18	=18	=18	=18	=18
*	*	*^	*	*	*	*	*	*	*	*	*	*	*	*	*
4..c#X 4..F/	2.AA\)	4..ee/	1a	.	4..F^\	.	.	4..c#X^\	.	.	4..a^/	.	.	4..ee^\	mu-	.
16d 16F/	.	16dd/	.	.	16F\	.	.	16d\	.	.	16a/	.	.	16dd\	-ne-	.
2d 2F/	.	2dd/	.	.	4F\	.	.	4d\	.	.	4a/	.	.	4dd\	-re	.
.	4r	.	.	.	4r	.	.	4r	.	.	4r	.	.	4r	.	.
=19	=19	=19	=19	=19	=19	=19	=19	=19	=19	=19	=19	=19	=19	=19	=19	=19
!	!	!	!	!	!	!	!LO:DY:a	!	!	!LO:DY:a	!	!	!LO:DY:a	!	!	!LO:DY:a
2B 2BB/	1rGG	4.dd/	4.f\	pp	8.B-X\	.	pp	8.d\	.	pp	8.b-X/	.	pp	8.ff\	di-	pp
.	.	.	.	.	16B-\	.	.	16B-X\	.	.	16b-/	.	.	16dd\	-gi-	.
.	.	.	.	.	8B-\	.	.	8B-\	.	.	8b-/	.	.	8dd\	-tus	.
.	.	8b 8d/	8ryy	.	8B-\	.	.	8d\	.	.	8b-/	.	.	8ff\	pa-	.
2ryy	.	4a/	2c\	.	4.B-\	.	.	4.c\	.	.	4.a/	.	.	4.ff\	-ter-	.
.	.	4f/	.	.	.	.	.	.	.	.	.	.	.	.	.	.
.	.	.	.	.	8B-\	.	.	8c\	.	.	8a/	.	.	8ee-X\	-nae	.
*	*	*v	*v	*	*	*	*	*	*	*	*	*	*	*	*	*
=20	=20	=20	=20	=20	=20	=20	=20	=20	=20	=20	=20	=20	=20	=20	=20
2B-X\	1r	(2f (2c/	.	4.B-X\	.	.	4.c\	.	.	4.b-X/	.	.	(4.ee-X\	dex-	.
.	.	.	.	8B-\	.	.	8d\	.	.	8f/	.	.	8dd\)	-tae-	.
4ryy	.	4dd 4f 4d/))	.	8B-\	.	.	8d\	.	.	8f/	.	.	8dd\	-rae	.
.	.	.	.	8r	.	.	8r	.	.	8r	.	.	8r	.	.
!	!	!	!	!	!	!	!	!	!LO:DY:a	!	!	!LO:DY:a	!	!	!LO:DY:a
4c 4A-X\	.	4dd 4f#X/	.	4A-X\	.	.	4c\	.	f	4f#X/	.	f	4dd\	Tu	f
=21	=21	=21	=21	=21	=21	=21	=21	=21	=21	=21	=21	=21	=21	=21	=21
!	!LO:TX:b:i:t=ped.	!	!	!	!	!	!	!	!	!	!	!	!	!	!
2d 2B 2G/	2.GG\	2gg 2g/	.	2G^\	.	.	2B^\	.	.	2g^/	.	.	(4.gg 4.dd^\	ri-	.
.	.	.	.	.	.	.	.	.	.	.	.	.	8dd\)	.	.
4d 4B 4G/	.	4dd 4g/	.	4G\	.	.	4B\	.	.	4g/	.	.	4dd\	-te	.
!	!	!	!	!	!	!	!LO:TX:a:i:t=vi=:note=podkreślone na czerwono	!	!	!	!	!	!	!	!
!!LO:TX:t=P:problem:odnośnik vi-[de re-]-tro; brak odnośnego fragmentu
4d 4B/	4BB\	4ffn 4g/	.	4B\	.	.	4d\	.	.	4ryy	.	.	4ffn\	pro-	.
!!LO:LB:g=original
=22	=22	=22	=22	=22	=22	=22	=22	=22	=22	=22	=22	=22	=22	=22	=22
!	!	!	!	!	!	!	!	!	!	!LO:TX:a:i:t==tro:note=podkreślone na czerwono	!	!	!	!	!
4G 4C/	1CC	1cc 1e	.	8C\	.	.	4G/	.	.	4e/	.	.	4cc\	tus.	.
.	.	.	.	8r	.	.	.	.	.	.	.	.	.	.	.
8c\L	.	.	.	8c\	De-	.	4r	.	.	4r	.	.	4r	.	.
8c\J	.	.	.	8c\	-o	.	.	.	.	.	.	.	.	.	.
4.c\	.	.	.	4.c\	Pa-	.	2r	.	.	2r	.	.	[2cc\	e-	.
8B\	.	.	.	8B\	-tri,	.	.	.	.	.	.	.	.	.	.
=23	=23	=23	=23	=23	=23	=23	=23	=23	=23	=23	=23	=23	=23	=23	=23
*	*	*^	*	*	*	*	*	*	*	*	*	*	*	*	*
4.B\	1CC	2cc/	2.e\	.	4.B\	De-	.	1r	.	.	2r	.	.	4cc\]	.	.
.	.	.	.	.	.	.	.	.	.	.	.	.	.	8cc\	-jus-	.
8A\	.	.	.	.	8A\	-o	.	.	.	.	.	.	.	8cc\	-que	.
4A\	.	4.cc^</	.	.	4A\	Pa-	.	.	.	.	4r	.	.	4.cc\	so-	.
4G\	.	.	4g\	.	8G\	-tri	.	.	.	.	[4g^/	cum	.	.	.	.
.	.	8b/	.	.	8G\	sit	.	.	.	.	.	.	.	8b\	-li	.
=24	=24	=24	=24	=24	=24	=24	=24	=24	=24	=24	=24	=24	=24	=24	=24	=24
4.F\	1CC	4.b^/	[2g\	.	4.F\	glo-	.	4r	.	.	4g/]	.	.	4.b^\	fi-	.
.	.	.	.	.	.	.	.	4F/	in	.	8g/	spi-	.	.	.	.
8C/	.	8a/	.	.	8C/	-ri	.	.	.	.	8g/	-ri-	.	8a\	-li-	.
!	!	!	!	!	!	!	!	!	!	!	!	!	!	!LO:TX:t=P:problem:poprawiona wersja tej połowy taktu zapisana ponad systemem	!	!
8F\L	.	2a/	4.g\]	.	4C/	.	.	8F/	sae-	.	4.g^/	-tu	.	8a\	-o	.
8G\	.	.	.	.	.	.	.	8G/	-cu-	.	.	.	.	8r	.	.
8A\	.	.	.	.	8r	.	.	8A/	-lo-	.	.	.	.	4a/	sit	.
8B\J	.	.	8f\	.	8C/	in	.	8B/	-rum	.	8f/	Pa-	.	.	.	.
=25	=25	=25	=25	=25	=25	=25	=25	=25	=25	=25	=25	=25	=25	=25	=25	=25
*	*^	*	*	*	*	*	*	*	*	*	*	*	*	*	*	*
8C/L	8CC\L	2.c/	1g	4f\	.	8C/	sae-	.	4.c\	sae-	.	4f/	-ra-	.	[>2g/	glo-	.
8D/	8DD\	.	.	.	.	8D/	-cu-	.	.	.	.	.	.	.	.	.	.
8E/	8EE\	.	.	4e\	.	8E\	-lo-	.	.	.	.	4e/	-cli-	.	.	.	.
8F/J	8FF\J	.	.	.	.	8F\	-rum	.	8c\	-cu-	.	.	.	.	.	.	.
*	*	*	*	*	*	*	*	*	*	*	*	*	*color:dodgerblue	*	*	*	*
!	!	!	!	!	!	!	!	!	!	!	!	!LO:TX:t=P:problem:jedynie "o" pokolorowane na niebiesko	!	!	!	!	!
2G\	2GG\	.	.	2d\	.	4.G\	sae-	.	4c\	-la	.	8d/	-to	.	4g/]	.	.
*	*	*	*	*	*	*	*	*	*	*	*	*	*color:auto	*	*	*	*
.	.	.	.	.	.	.	.	.	.	.	.	8r	.	.	.	.	.
.	.	(4B/	.	.	.	.	.	.	4B\	sit	.	4d/	sit	.	8g/	-ri-	.
.	.	.	.	.	.	8G\	-cu-	.	.	.	.	.	.	.	8g/	-a,	.
*	*v	*v	*	*	*	*	*	*	*	*	*	*	*	*	*	*	*
*	*	*v	*v	*	*	*	*	*	*	*	*	*	*	*	*	*
=26	=26	=26	=26	=26	=26	=26	=26	=26	=26	=26	=26	=26	=26	=26	=26
!	!	!	!	!	!	!LO:DY:a	!	!	!LO:DY:a	!	!	!LO:DY:a	!	!	!LO:DY:a
4.c/)	2C\	4.g 4.e/	.	[4C/	-la,	<	4.c\	glo-	<	4.e/	glo-	<	4.g/	a-	<
.	.	.	.	8C/]	.	.	.	.	.	.	.	.	.	.	.
8G/	.	8e 8c/	.	8r	.	.	8G/	-ria	.	8c/	-ria,	.	8e/	-men,	.
4.G/	2C\	4.cc 4.e/	.	4.C/	a-	.	4.G/	a-	[	4.e/	a-	.	4.cc\	a-	.
8c/	.	8g 8e/	.	8C/	-men,	[	8e\	-men	.	8e/	-men	[	8g/	-men,	[
*v	*v	*	*	*	*	*	*	*	*	*	*	*	*	*	*
=27	=27	=27	=27	=27	=27	=27	=27	=27	=27	=27	=27	=27	=27	=27
!	!	!	!	!	!	!	!	!LO:DY:a	!	!	!LO:DY:a	!	!	!LO:DY:a
!	!	!	!	!	!LO:HP:b	!	!	!	!	!	!	!	!	!
1c 1G 1C	1ee 1g 1e	.	1c	a-	>]	1e	a-	>]	1g	a-	>]	1ee 1cc	a-	.>]
=28	=28	=28	=28	=28	=28	=28	=28	=28	=28	=28	=28	=28	=28	=28
1G 1C 1CC	1cc 1e;	.	1C;	-men.	.	1G;	-men	.	1e;	-men	.	1cc;	-men.	..
==	==	==	==	==	==	==	==	==	==	==	==	==	==	==
*-	*-	*-	*-	*-	*-	*-	*-	*-	*-	*-	*-	*-	*-	*-
!!!system-decoration: ([g1]{g2})
!!!ENC: Andrzej Gręziak
!!!END: 2021-07-30
!!!ENC: Kamil Watkowski
!!!END: 2021-09-09
!!!RDF**kern: > = above
!!!RDF**kern: < = below
